app/assets/svgs/blocks.svg

<svg fill="none" height="127" viewBox="0 0 177 127" width="177" xmlns="http://www.w3.org/2000/svg"><path d="m24.2535 40.3614 3.2907-13.1366c4.9612-3.6188 11.3418-2.442 16.9951-4.2063 1.7824-1.266.3352-5.617 2.0136-8.5868.8907-1.576 14.1946-13.595559 15.6424-14.031396 2.1499-.647171 5.7714-.40448788 8.0279.032745 3.786.733591 43.7708 15.160051 45.7138 16.621951.969.7288.335 2.4185.882 2.9688.795.7988 3.36.1626 3.879 2.0073l.63 15.309c-7.043 5.8918-7.996-.36-9.514-6.412-4.517 3.8301-4.93 10.3745-4.77 15.8898 6.782-.2938 7.838-6.6325 14.329-6.438 2.421.0726 16.461 5.547 18.486 7.0137 2.351 1.7034 1.838 4.1661 2.343 4.5679.708.5629 2.69-.2163 3.797.3934 5.221 2.8749-2.144 18.1573 1.294 21.5352 1.16 1.1388 15.554 4.7916 19.095 6.3399 4.029 1.7621 6.273 5.1947 10.612 4.7597l-.002 1.5743c-7.26 4.637-4.261 17.369-4.688 24.994l-7.969.924c-1.249-6.191-1.652-11.759-.068-17.9571l-8.262 3.3922-5.498 23.1079c4.718-2.466 11.022-5.336 16.401-5.334.962.001 3.651-.467 2.66 1.609-1.085 2.274-14.949 5.661-17.71 8.811-10.891 1.255-20.539-5.503-30.195-8.585-6.135-1.958-12.927-2.859-19.423-4.959-2.8859-.933-6.4078-3.65-8.7299-4.077-3.8574-.708-10.3269 3.454-7.712-3.315-8.0635-1.871-16.6916-3.725-24.3349-6.9546-7.4861-3.163-14.6517-6.4629-22.2545-9.5477-13.1187-5.3229-26.2007-10.7293-39.089064-16.5596-.838792-1.3187 2.743164-22.3913 4.203194-24.6412 2.9626-4.5653 14.66457-7.5674 19.92467-7.1105zm-13.6566 13.9075c.3977 4.5265-3.88925 11.1034-.1016 14.3468l29.744 13.1895 3.1773-17.9608c-10.307-5.2002-21.224-8.41-32.8197-9.5755zm3.1529-8.495c-2.2164 2.2163 6.7246 4.2476 7.9896 4.2817 2.6479.0714 1.402-2.6504 2.3736-3.8007-.5449-3.171-8.0838-.6796-10.3632-.481zm54.056 21.1912.5821-20.1844c-.4864-.7203-12.9695-5.3101-15.1331-6.0682-1.6551-.5799-3.9643.0241-5.8524-.5081-2.8408-.8008-8.3097-5.8923-11.7572-7.3444-1.1437-.4817-1.0527-1.4655-2.3116.1525l-2.1613 18.0514zm-23.3181-40.2778-6.3494 1.5801c.7233 1.1265 5.4353 4.7175 6.3496 3.7102zm44.5205 50.8861c-1.5423-1.4868-16.3872-.7074-19.3679-1.3074-4.0952-.8243-14.9952-9.458-17.2082-9.2717l-4.735 16.8636c13.2263 4.3117 23.9546 14.4133 38.5031 14.9767 2.2296-.4995 3.1822-18.2375 2.808-21.2612zm10.6098-25.45v-14.8404c-7.1073 1.0271-43.2291-19.2243-45.5783-16.9636-.0741 3.859-2.8981 10.9024.7437 13.8422zm-43.4235-40.2404c-.4859 2.0483.9538 2.5318 2.3926 3.3571 5.7949 3.3236 16.73 4.9579 22.7332 7.9658 1.7269.8653 3.3677 3.5977 6.6473 5.0588 3.1642 1.4097 12.5724 4.8962 15.4284 2.7403.666-.5022 5.596-7.5285 5.658-8.1978.188-2.0494-6.363-4.2974-8.393-5.118-6.6812-2.7008-26.9013-11.33734-32.6149-11.97353-6.4157-.71435-6.7827 3.99942-11.8516 6.16733zm60.3845 70.9813v-16.9605l-37.6681-14.8237c-2.1303-.2773-1.3695.0582-1.5586 1.5487-.3733 2.9413-1.4836 13.5431-.5367 15.4134 1.9481 3.8481 26.4604 5.536 33.6704 10.5579 1.958 1.3634 2.018 5.2955 6.093 4.2642zm-19.076-2.1155c1.2068 5.5272-4.2856 17.1618-.0705 20.7602 2.2292 1.904 9.0515 6.361 11.7285 7.323 6.284 2.258 14.988 2.206 20.448 3.934 2.701.855 7.607 7.675 12.338 6.064l3.071-18.8335c-1.165-1.8888-25.438-8.5602-29.495-10.2457-2.547-1.058-16.7974-10.3101-18.02-9.002zm20.834-33.2424c-1.144.9036-12.254 7.7625-10.236 9.9096 4.86-.2903 10.821 4.7612 15.089 4.0676 5.788-.9409 11.045-6.8612 16.703-8.3134l-20.149-7.9759c-.599.6063-.827 1.8541-1.407 2.3121zm6.723 20.5174c-.847 1.3815.627 13.0779 0 15.9005l13.255-8.4266.003-15.9473c-2.172 2.8429-8.502 3.5487-10.457 5.2257-.868.7444-.494 2.0018-1.03 2.8787-.357.5843-1.724.2919-1.771.369zm41.337 18.0324-22.837-7.3316-14.253 9.4279 21.711 6.4409z" fill="#353848"/></svg>

<svg width="177" height="127" viewBox="0 0 177 127" fill="none" xmlns="http://www.w3.org/2000/svg">
<path d="M24.2535 40.3614L27.5442 27.2248C32.5054 23.606 38.886 24.7828 44.5393 23.0185C46.3217 21.7525 44.8745 17.4015 46.5529 14.4317C47.4436 12.8557 60.7475 0.836141 62.1953 0.400304C64.3452 -0.246867 67.9667 -0.00418388 70.2232 0.433049C74.0092 1.16664 113.994 15.5931 115.937 17.055C116.906 17.7838 116.272 19.4735 116.819 20.0238C117.614 20.8226 120.179 20.1864 120.698 22.0311L121.328 37.3401C114.285 43.2319 113.332 36.9801 111.814 30.9281C107.297 34.7582 106.884 41.3026 107.044 46.8179C113.826 46.5241 114.882 40.1854 121.373 40.3799C123.794 40.4525 137.834 45.9269 139.859 47.3936C142.21 49.097 141.697 51.5597 142.202 51.9615C142.91 52.5244 144.892 51.7452 145.999 52.3549C151.22 55.2298 143.855 70.5122 147.293 73.8901C148.453 75.0289 162.847 78.6817 166.388 80.23C170.417 81.9921 172.661 85.4247 177 84.9897L176.998 86.564C169.738 91.201 172.737 103.933 172.31 111.558L164.341 112.482C163.092 106.291 162.689 100.723 164.273 94.5249L156.011 97.9171L150.513 121.025C155.231 118.559 161.535 115.689 166.914 115.691C167.876 115.692 170.565 115.224 169.574 117.3C168.489 119.574 154.625 122.961 151.864 126.111C140.973 127.366 131.325 120.608 121.669 117.526C115.534 115.568 108.742 114.667 102.246 112.567C99.3601 111.634 95.8382 108.917 93.5161 108.49C89.6587 107.782 83.1892 111.944 85.8041 105.175C77.7406 103.304 69.1125 101.45 61.4692 98.2204C53.9831 95.0574 46.8175 91.7575 39.2147 88.6727C26.096 83.3498 13.014 77.9434 0.125636 72.1131C-0.713156 70.7944 2.8688 49.7218 4.32883 47.4719C7.29143 42.9066 18.9934 39.9045 24.2535 40.3614ZM10.5969 54.2689C10.9946 58.7954 6.70765 65.3723 10.4953 68.6157L40.2393 81.8052L43.4166 63.8444C33.1096 58.6442 22.1926 55.4344 10.5969 54.2689ZM13.7498 45.7739C11.5334 47.9902 20.4744 50.0215 21.7394 50.0556C24.3873 50.127 23.1414 47.4052 24.113 46.2549C23.5681 43.0839 16.0292 45.5753 13.7498 45.7739ZM67.8058 66.9651L68.3879 46.7807C67.9015 46.0604 55.4184 41.4706 53.2548 40.7125C51.5997 40.1326 49.2905 40.7366 47.4024 40.2044C44.5616 39.4036 39.0927 34.3121 35.6452 32.86C34.5015 32.3783 34.5925 31.3945 33.3336 33.0125L31.1723 51.0639L67.8058 66.9651ZM44.4877 26.6873L38.1383 28.2674C38.8616 29.3939 43.5736 32.9849 44.4879 31.9776L44.4877 26.6873ZM89.0082 77.5734C87.4659 76.0866 72.621 76.866 69.6403 76.266C65.5451 75.4417 54.6451 66.808 52.4321 66.9943L47.6971 83.8579C60.9234 88.1696 71.6517 98.2712 86.2002 98.8346C88.4298 98.3351 89.3824 80.5971 89.0082 77.5734ZM99.618 52.1234L99.618 37.283C92.5107 38.3101 56.3889 18.0587 54.0397 20.3194C53.9656 24.1784 51.1416 31.2218 54.7834 34.1616L99.618 52.1234ZM56.1945 11.883C55.7086 13.9313 57.1483 14.4148 58.5871 15.2401C64.382 18.5637 75.3171 20.198 81.3203 23.2059C83.0472 24.0712 84.688 26.8036 87.9676 28.2647C91.1318 29.6744 100.54 33.1609 103.396 31.005C104.062 30.5028 108.992 23.4765 109.054 22.8072C109.242 20.7578 102.691 18.5098 100.661 17.6892C93.9798 14.9884 73.7597 6.35186 68.0461 5.71567C61.6304 5.00132 61.2634 9.71509 56.1945 11.883ZM116.579 82.8643L116.579 65.9038L78.9109 51.0801C76.7806 50.8028 77.5414 51.1383 77.3523 52.6288C76.979 55.5701 75.8687 66.1719 76.8156 68.0422C78.7637 71.8903 103.276 73.5782 110.486 78.6001C112.444 79.9635 112.504 83.8956 116.579 82.8643ZM97.503 80.7488C98.7098 86.276 93.2174 97.9106 97.4325 101.509C99.6617 103.413 106.484 107.87 109.161 108.832C115.445 111.09 124.149 111.038 129.609 112.766C132.31 113.621 137.216 120.441 141.947 118.83L145.018 99.9965C143.853 98.1077 119.58 91.4363 115.523 89.7508C112.976 88.6928 98.7256 79.4407 97.503 80.7488ZM118.337 47.5064C117.193 48.41 106.083 55.2689 108.101 57.416C112.961 57.1257 118.922 62.1772 123.19 61.4836C128.978 60.5427 134.235 54.6224 139.893 53.1702L119.744 45.1943C119.145 45.8006 118.917 47.0484 118.337 47.5064ZM125.06 68.0238C124.213 69.4053 125.687 81.1017 125.06 83.9243L138.315 75.4977L138.318 59.5504C136.146 62.3933 129.816 63.0991 127.861 64.7761C126.993 65.5205 127.367 66.7779 126.831 67.6548C126.474 68.2391 125.107 67.9467 125.06 68.0238ZM166.397 86.0562L143.56 78.7246L129.307 88.1525L151.018 94.5934L166.397 86.0562Z" fill="#353848"/>
</svg>
